X:1
T:Title
%%score ( 1 2 ) ( 3 4 )
L:1/8
Q:1/4=100
M:4/4
K:Eb
V:1 treble nm="Midi_20"
V:2 treble 
V:3 bass nm="Midi_20"
V:4 bass 
V:1
"^Everton (87. 87. D.)""^Henry Smart\n(1813-1879)""^Christopher Wordsworth\n(1807-85)""^Alleluia! Alleluia!" G2 A2 B2 e2 | %1
w: |
w: |
w: |
w: |
 c2 d2 e2 B2 | A2 B2 G2 E2 | F2 F2 F4 || G2 A2 B2 e2 | c2 d2 e2 B2 | A2 B2 G2 E2 | F2 F2 F4 || %8
w: |||||||
w: |||||||
w: |||||||
w: |||||||
 F2 F2 G2 B2 | B2 =A2 B2 d2 | d2 d2 c2 G=A | B2 =A2 G4 || B2 B2 B2 e2 | A2 c2 c2 B2 | E2 F2 G2 B2 | %15
w: ||For the world's sal\- *|va- tion bled,||||
w: ||Will their heads be\- *|fore him wave,||||
w: ||Here on earth may *|fruit- ful be,||||
w: ||Fount of love and *|sanc- ti- ty;||||
 A2 F2 E4 |] %16
w: |
w: |
w: |
w: |
V:2
 E2 D2 E2 G2 | E2 A2 G2 E2 | E2 F2 E2 B,2 | C2 DE D4 || E2 D2 E2 G2 | E2 A2 G2 E2 | E2 F2 E2 B,2 | %7
w: ~~Al- le- lu- ia!|Al- le- lu- ia!|Hearts to heaven and|voi- ces * raise;|Sing to God a|hymn of glad- ness,|Sing to God a|
w: ~Christ is ri- sen,|Christ the first- fruits|Of the ho- ly|har- vest * field,|Which will all its|full a- bun- dance|At his se- cond|
w: ~Christ is ri- sen,|we are ri- sen;|Shed up- on us|heaven- ly * grace,|Rain, and dew, and|gleams of glo- ry|From the bright- ness|
w: Al- le- lu- ia!|Al- le- lu- ia!|Glo- ry be to|God on * high;|To the Fa- ther,|and the Sa- viour,|Who has gained the|
 C2 DE D4 || D2 F2 E2 E2 | F2 F2 F2 F2 | G2 G2 G2 G2 | G2 ^F2 G4 || D2 D2 E2 E2 | E2 E2 E2 E2 | %14
w: hymn of * praise;|||||||
w: com- ing * yield;|||||||
w: of thy * face;|||||||
w: vic- to\- * ry;|||||||
 E2 D2 E2 E2 | E2 D2 E4 |] %16
w: ||
w: ||
w: ||
w: ||
V:3
 B,2 B,2 B,2 B,2 | C2 A,2 B,2 B,2 | C2 F,2 B,2 B,2 | B,2 =A,2 B,4 || B,2 B,2 B,2 B,2 | %5
w: |||||
w: |||||
w: |||||
w: |||||
 C2 A,2 B,2 B,2 | C2 F,2 B,2 B,2 | B,2 =A,2 B,4 || B,2 B,2 B,2 B,2 | C2 C2 B,2 B,2 | B,2 D2 E2 C2 | %11
w: ||||||
w: ||||||
w: ||||||
w: ||||||
 D2 C2 B,4 || B,2 _A,2 G,2 G,2 | A,2 A,2 A,2 G,2 | G,2 B,2 B,2 B,2 | C2 B,A, G,4 |] %16
w: |Je- sus Christ, the|King of glo- ry,|Now is ri- sen|from the * dead.|
w: |Ri- pened by his|glo- rious sun- shine|From the fur- rows|of the * grave.|
w: |And by an- gel-|hands be ga- thered,|And be e- ver-|more with * thee.|
w: |Al- le- lu- ia!|Al- le- lu- ia!|To the Tri- une|Ma- jes\- * ty.|
V:4
 E,2 F,2 G,2 E,2 | A,2 F,2 E,2 G,2 | C,2 D,2 E,2 G,2 | F,2 F,,2 B,,4 || E,2 F,2 G,2 E,2 | %5
w: |||||
w: |||||
w: |||||
w: |||||
 A,2 F,2 E,2 G,2 | C,2 D,2 E,2 G,2 | F,2 F,,2 B,,4 || B,,2 D,2 E,2 G,2 | F,2 F,E, D,2 B,,2 | %10
w: |||He who on the|Cross a * vic- tim|
w: |||Then the gol- den|ears of * har- vest|
w: |||That we, Lord, with|hearts in * hea- ven|
w: |||Glo- ry to the|Ho- ly * Spi- rit,|
 B,2 B,,2 C,2 E,2 | D,2 D,2 G,4 || G,2 F,2 E,2 _D,2 | C,2 A,,2 E,2 E,2 | C,2 B,,2 E,2 G,,2 | %15
w: |||||
w: |||||
w: |||||
w: |||||
 A,,2 B,,2 E,4 |] %16
w: |
w: |
w: |
w: |

